X:1
T:Come, let us join the roundelay - Beale
T:#
%%score 1 { 2 | 3 } 4 { ( 5 7 ) | ( 6 8 ) }
L:1/8
Q:1/4=120
M:4/4
K:G
V:1 treble nm="Alto" snm="A"
V:2 treble-8 nm="Tenor 1" snm="T"
V:3 treble-8 
V:4 bass nm="Bass" snm="B"
V:5 treble nm="Piano"
V:7 treble 
V:6 bass 
V:8 bass 
V:1
"^Allegro con moto""^Come, let us join the roundelay" z8 |!mf! D2 E>F G2 F2 | E6"^l" E2 | %3
w: |Come, let us join the|roun- de-|
 D6"^William Beale\n(1784-1854)" z2 |[M:4/4] z2 D2 (EF) G2 | F2 D2 D4- | D2 D2 (EF) G2 | F4 G3 F | %8
w: lay,|And sing * the|jo- cund, jo­|* cund time * a-|way, Fa la|
 E2 E2"^'" E2 E2 | D6 G>F | E2 E2 E2 F>G | A2 G2 F2 G>F | E2 D2 E2 ^C2 | D8 |!f! E6 E2 | D4 z4 | %16
w: la la la la|la, fa la|la la la la la|la la la, fa la|la la la la|la.|While the|fauns,|
 z4!p! D2 E2 | F2 G2 A2 F2 | G4 (B4 | A4) F4 | G4 E4 | (F4 G4- | G4) F4 |1 G8 :|[M:3/4] z6 |2 %25
w: while the|fauns and sa- tyrs|round, Dance|* a-|long on|fai­ *|* ry|ground.||
 G2!mf! G2 G2 x2 || E4 G2 x2 | A2 F4 x2 ||[M:4/4] G4!f! B3 B | A2 F2 G2 A2 | F4 G3 F | %31
w: ground. And the|mer- ry|nymphs and|swains Gai- ly|trip these ru- ral|plains. Fa la|
 E2 E2 E2 E2 |[M:4/4]"^dim." D6 z2 | z2!p! B2 AG F2 | G2 E2 F2 GF | EDCB, A,2!<(! AG | %36
w: la la la la|la,|fa la la la|la la la, fa la|la la la la la, fa la|
 FE D2 G3 F!<)! | EF G2 A3 G | F4!f! B4 | A2 G2 A2 F2 ||[M:3/4] G2!mf! G2 G2 x2 | E4 G2 x2 | %42
w: la la la, fa la|la la la, fa la|la, fa|la la la la|la. And the|mer- ry|
 A2 F4 x2 ||[M:4/4] G4!f! B3 B |[M:4/4] A2 F2 G2 A2 | F4 G3 F | E2 E2 E2 E2 |"^dim." D6 z2 | %48
w: nymphs and|swains Gai- ly|trip these ru- ral|plains. Fa la|la la la la|la,|
 z2!p! B2 AG F2 | G2 E2 F2 GF | EDCB, A,2 AG |!<(! FE D2 G3 F | EF G2 A3 G | F4!<)!!f!"^rit." B4 | %54
w: fa la la la|la la la, fa la|la la la la la, fa la|la la la, fa la|la la la, fa la|la, fa|
 A2 G2 A2 F2 | G8 |] %56
w: la la la la|la.|
V:2
!mf! d4 B3 c | d2 d2 B2 d2 | (d4 c4- | c2) (BA) B2 d2 |[M:4/4] d6 ^c2 | d4 d4 | d6 ^c2 | d4 d4- | %8
w: Come, let us,|let us join the|roun­ *|* de­ * lay, And|sing the|jo- cund|time a-|way, Fa|
 d2 c>B c2 c2- | c2 B>A B2 B2 | ^c2 A>B c2 d>e | f2 ^c2 d2 B2 | ^c2 d2 B2 A2 | A8 |!f! c6 c2 | %15
w: * la la la, fa|* la la la, fa|la la la la la la|la la la, fa|la la la la|la.|While the|
 B4!p! G2 A2 | B2 c2 d2 (cB) | A4 d2 c2 | B2 A2 G2 B2 | d4 d4- | d4 c4 | c4 B4 | A6 A2 |1 B8 :| %24
w: fauns, while the|fauns and sa- tyrs *|round, while the|fauns and sa- tyrs|round, Dance|* a-|long on|fai- ry|ground.|
[M:3/4] z6 |2 B2!mf! B2 B2 x2 || c4 d2 x2 | e2 d4 x2 ||[M:4/4] d4!f! d3 d | d2 d2 B2 c2 | A4 d4- | %31
w: |ground. And the|mer- ry|nymphs and|swains Gai- ly|trip these ru- ral|plains. Fa|
 d2 c>B c2 c2- |[M:4/4]"^dim." c2 B>A B2!p! GA | Bc d2 z2 dc | Bd^ce d4 | cB A2 AGFE | D2 d3 cBA | %37
w: * la la la la|* la la la la la|la la la, fa la|la la la la la|fa la la la la la la|la, fa la la la|
 GA B2 cd e2 | d4!f! d4 | c2 B2"^," c2 A2 ||[M:3/4] B2!mf! B2 B2 x2 | c4 d2 x2 | e2 d4 x2 || %43
w: la la la la la la|la, fa|la la la la|la. And the|mer- ry|nymphs and|
[M:4/4] d4!f! d3 d |[M:4/4] d2 d2 B2 c2 | A4 d4- | d2 c>B c2 c2- |"^dim." c2 B>A B2!p! GA | %48
w: swains Gai- ly|trip these ru- ral|plains. Fa|* la la la, fa|* la la la, fa la|
 Bc d2 z2 dc | Bd^ce d4 | cB A2 AGFE | D2 d3 cBA | GA B2 cd e2 | d4!f!"^rit." d4 | c2 B2 c2 A2 | %55
w: la la la, fa la|la la la la la,|fa la la, fa la la. la|la, fa la la la|la la la la la la|la, fa|la la la la|
 B8 |] %56
w: la.|
V:3
!mf! B8 | A2 A2 G2 G2 | G6 A2 | d6 B2 |[M:4/4] A4 G4 | A4 B4 | A4 G4 | A4 G4 | G2 G2 G2 G2 | %9
w: Come,|let us join the|roun- de-|lay, And|sing the|jo- cund|time a-|way, Fa|la la la la|
 G6 B2 | e2 ^c>B A2 A2- | A2 A2 A2 G2- | G2 F2 E2 E2 | F8 |!f! G6 G2 | G2!p! A2 B2 c2 | %16
w: la, fa|la la la la, fa|* la la, fa|* la la la|la.|While the|fauns and sa- tyrs|
 d2 c2 B2 G2 | D2 E2 F2 A2 | B4 d4- | d2 A2 d2 c2 | (B4 A4- | A4) G4 | D6 D2 |1 D8 :|[M:3/4] z6 |2 %25
w: round, the fauns and|sa- tyrs Dance a-|long Dance|* a- long on|fai­ *|* ry,|fai- ry|ground.||
 D2!mf! D2 G2 x2 || G4 G2 x2 | c2 A4 x2 ||[M:4/4] B4"^/+""^."!f! B3 B | d2 A2 G2 e2 | d4 G4- | %31
w: ground, And the|mer- ry|nymphs and|swains Gai- ly|trip these ru- ral|plains. Fa|
 G2 G2 G2 G2 |[M:4/4]"^dim." G4!p! GABc | d2 DE FG A2 | B2 A4 G2 | G2 z2!<(! DEFG | %36
w: * la la la|la, fa la la la|la, fa la la la la|la la la|la, fa la la la|
 AG F2 GA B2!<)! | c2 d2 edcB | A4!f! G4 | F2 G2 E2 D2 ||[M:3/4] D2!mf! D2 G2 x2 | G4 G2 x2 | %42
w: la la la la la la,|fa la la la la la|la, fa|la la la la|la. And the.|mer- ry|
 c2 A4 x2 ||[M:4/4] B4!f! B3 B |[M:4/4] d2 A2 G2 e2 | d4 G4- | G2 G2 G2 G2 |"^dim." G4!p! GABc | %48
w: nymphs and|swains Gai- ly|trip these ru- ral|plains. Fa|* la la la|la, fa la la la|
 d2 DE FG A2 | B2 A4 G2 | G2 z2 DEFG |!<(! AG F2 GA B2 | c2 d2 edcB | A4!<)!!f!"^rit." G4 | %54
w: la, fa la la la la|la la la|la, fa la la la|la la la la la la|fa la la la la la|la, fa|
 F2 G2 E2 D2 | D8 |] %56
w: la la la la|la.|
V:4
!mf! G,8 | F,2 D,2 E,2 B,,>B,, | C,2 (C,B,,) (C,D,) (E,F,) | G,6 G,2 |[M:4/4] F,4 E,4 | D,4 G,4 | %6
w: Come,|let us join, let us|join the * roun­ * de­ *|lay, And|sing the|jo- cund|
 F,4 E,4 | D,4 B,,3 B,, | C,2 C,2 C,2 E,2 | G,8 | A,6 G,2 | F,2 E,2 D,2 G,,2 | %12
w: time a-|way, Fa la|la la la la|la,|fa la|la la la, fa|
 A,,2 B,,2 G,,2 A,,2 | D,8 |!f! C,6 C,2 | G,8 |!p! G,,2 A,,2 B,,2 C,2 | D,4 D,4 | G,,4 G,4 | %19
w: la la la la|la.|While the|fauns,|while the fauns and|sa- tyrs|Dance a-|
 F,4 D,4 | E,4 A,,4 | D,8- | D,4 D,4 |1 G,,8 :|[M:3/4] z6 |2 G,,2!mf! G,,2 G,,2 x2 || C,4 B,,2 x2 | %27
w: long on|fai- ry,|fai­|* ry|ground.||ground, And the|mer- ry|
 A,,2 D,4 x2 ||[M:4/4] G,4!f! G,3 G, | F,2 D,2 E,2 A,,2 | D,4 B,,3 B,, | C,2 C,2 C,2 E,2 | %32
w: nymphs and|swains Gai- ly|trip these ru- ral|plains. Fa la|la la la la|
[M:4/4]"^dim." G,6 z2 |!p! G,,A,,B,,C, D,E, F,2 | E,2 A,2 D,2 B,,2 | C,2!<(! A,G, F,E, D,2 | %36
w: la,|fa la la la la la la|la la la la|la, fa la la la la,|
 D,3 C, B,,A,, G,,2!<)! | C,3 B,, A,,B,, C,2 | D,4!f! G,,4 | D,2 E,2 C,2 D,2 || %40
w: fa la la la la,|fa la la la la|la, fa|la la la la|
[M:3/4] G,,2!mf! G,,2 G,,2 x2 | C,4 B,,2 x2 | A,,2 D,4 x2 ||[M:4/4] G,4!f! G,3 G, | %44
w: la. And the|mer- ry|nymphs and|swains Gai- ly|
[M:4/4] F,2 D,2 E,2 A,,2 | D,4 B,,3 B,, | C,2 C,2 C,2 E,2 |"^dim." G,6 z2 | %48
w: trip these ru- ral|plains. Fa la|la la la la|la,|
!p! G,,A,,B,,C, D,E, F,2 | E,2 A,2 D,2 B,,2 | C,2 A,G, F,E, D,2 |!<(! D,3 C, B,,A,, G,,2 | %52
w: fa la la la la la la|la la la la|la, fa la la la la,|fa la la la la,|
 C,3 B,, A,,B,, C,2 | D,4!<)!!f!"^rit." G,,4 | D,2 E,2 C,2 D,2 | G,,8 |] %56
w: fa la la la la|la, fa|la la la la|la.|
V:5
!mf! [B,D]4 B,3 C | D2 EF/ x/ [B,G]2 [DF]2 | E6 E2 | D6 z2 |[M:4/4] z2 D2 EF G2 | [DF]2 D2 D4- | %6
 D2 (D2 E)F G2 | [DF]4 G3 F | E2 E2 E2 E2 | D6 G>F | [^CE]2 E2 [A,CE]2 [DF]>[EG] | %11
 [FA]2 [^CG]2 [DF]2 G>F | [^CE]2 D2 [B,E]2 [A,C]2 | D8 |!f! [CE]6 [CE]2 | %15
 [B,D]4!p! [G,B,]2 [A,C]2 | [B,D]2 C2 [B,D]2!p! E2 | F2 G2 [DA]2 [CF]2 | [B,G]4 (B4 | [DA]4) F4 | %20
 [B,G]4 [A,C]4- | [A,C]4 G4- | G4 F4 |1 G8 :|[M:3/4] z6 |2 [B,G]2!mf! [B,G]2 [B,G]2 x2 || %26
 E4 [DG]2 x2 | [CEA]2 [DF]4 x2 ||[M:4/4] [B,DG]4!f! .[B,DB]3 [B,DB] | [DA]2 [DF]2 [B,G]2 [CEA]2 | %30
 [DF]4 G3 F | E2 E2 E2 E2 |[M:4/4] D6!p! x2 | D2 B2 AG F2 | G2 E2 F2 GF | [CE][B,D]CB, A,2 AG | %36
 FE x2 G3"^*\" F | EF G2 A2 [CA][B,G] | [A,DF]4!f! [DB]4 | [CA]2 [B,G]2 [CA]2 [A,F]2 || %40
[M:3/4] [B,G]2!mf! [B,G]2 [B,G]2 x2 | E4 [DG]2 x2 | [CEA]2 F4 x2 || %43
[M:4/4] [B,DG]4!f! [B,DB]3 [B,DB] |[M:4/4] [DA]2 [DF]2 [B,G]2 [CEA]2 | [DF]4 G3 F | E2 E2 E2 E2 | %47
 D6!p! z2 | D2 B2 AG F2 | G2 E2 F2 GF | [CE][B,D]CB, A,2 AG | FE x2 G3 F | EF G2 A2- [CA][B,G] | %53
 [A,DF]4!f! [DB]4 | [CA]2 [B,G]2 [CA]2 [A,F]2 | G8 |] %56
V:6
 G,8 | [F,A,]2 [D,A,]2 [E,G,]2 G,2 | C,2 C,B,, x2 A,2 | G,6 [G,B,]2 |[M:4/4] [F,A,]4 [E,G,]4 | %5
 [D,A,]4 [G,B,]4 | [F,A,]4 [E,G,]4 | [D,A,]4 G,4 | [C,G,]2 [C,G,]2 [C,G,]2 [E,G,]2 | G,8 | %10
 x6 A,2- | A,2 [E,A,]2 [D,A,]2 G,2- | G,2 [B,,F,]2 [G,,E,]2 [A,,E,]2 | F,8 | [C,G,]6 [C,G,]2 | %15
 G,2 A,2 x4 | G,,2 A,,2 B,,2 [C,G,]2 |!p! D,2 E,2 F,2 A,2 | G,,4 G,2 B,2 | x4[I:staff -1] D4- | %20
 D4 E4 |[I:staff +1] D,8 | D,6 D,2 |1 [G,,D,]8 :|[M:3/4] z6 |2 [G,,D,]2 [G,,D,]2 [G,,G,]2 x2 || %26
 [C,G,]4 [B,,G,]2 x2 | A,,2 D,4 x2 ||[M:4/4] G,4 G,3 G, | x8 | [D,A,]4 G,4- | G,2 G,2 G,2 G,2 | %32
[M:4/4]"^dim." G,6 z2 | G,,A,,[B,,D,][C,E,] [D,F,][E,G,] [F,A,]2 | x2!p! A,4 G,2 | %35
 G,2 A,2 A,G, F,[E,G,] | A,G, F,2 G,A, G,,2 | G,A, x6 | D,4 [G,,G,]4 | %39
 [D,F,]2 [E,G,]2 [C,E,]2 D,2 ||[M:3/4] [G,,D,]2 [G,,D,]2 [G,,G,]2 x2 | [C,G,]4 [B,,G,]2 x2 | %42
 A,,2 D,4 x2 ||[M:4/4] G,4 G,3 G, |[M:4/4] F,2 [D,A,]2 [E,G,]2 A,,2 | [D,A,]4 G,4- | %46
 G,2 G,2 G,2 G,2 |"^dim." G,6 z2 | G,,A,,[B,,D,][C,E,] [D,F,][E,G,] [F,A,]2 | E,2 A,4 [B,,G,]2 | %50
"^i'" [C,G,]2"^cresc." A,2 A,G, F,[E,G,] | A,G, F,2 G,A, x2 | G,A, x6 | D,4"^rit." [G,,G,]4 | %54
 [D,F,]2 [E,G,]2 [C,E,]2 D,2 | D,8 |] %56
V:7
 x8 | x2 D2 x4 | D4 C4 | C2 B,A, B,2 D2 |[M:4/4] D6 ^C2 | x8 | x4 D2 ^C2 | x4 D4- | %8
 D2 C>B, C2 C2- | C2 B,>A, B,2 B,2 | x2 [A,^C]>B, x4 | x6 B,2 | x8 | A,8 | x8 | x8 | x6 CB, | %17
 A,4 x4 | B,2 A,2 D4 | D2 A,2 D2 C2 | x8 | F4 [G,B,]4 | A,6 A,2 |1 B,8 :|[M:3/4] x6 |2 x8 || %26
 C4 x4 | x2 A,4 x2 ||[M:4/4] x8 | x8 | x4 D4- | D2 C>B, C2 C2- | %32
[M:4/4] C2 B,>A, [G,B,]A,[G,B,][A,C] | B,C D2 z2 DC | B,D^CE D4 | x8 | x2 D2- DCB,A, | %37
 C2 [B,D]2 [CE]D E2 | x8 | x8 ||[M:3/4] x8 | C4 x4 | x2 [A,D]4 x2 ||[M:4/4] x8 |[M:4/4] x8 | %45
 x4 D4- | D2 C>B, C2 C2- | C2 B,>A, [G,B,]A,[G,B,][A,C] | B,C D2 z2 DC | B,D^CE D4 | x8 | %51
 x2 D2- DCB,A, | C2 [B,D]2 [CE]D E2 | x8 | x8 | B,8 |] %56
V:8
 x8 | x6 B,,>B,, | x4 C,D,E,F, | x8 |[M:4/4] x8 | x8 | x8 | x4 B,,3 B,, | x8 | x8 | A,6 G,2 | %11
 F,2 x4 G,,2 | A,,2 x6 | D,8 | x8 | G,8 | x8 | D,4 D,4 | x4 G,4 | F,4 D,4 | E,4 A,,4 | x8 | x8 |1 %23
 x8 :|[M:3/4] x6 |2 x8 || x8 | x8 ||[M:4/4] x8 | F,2 [D,A,]2 [E,G,]2 A,,2 | x4 B,,3 B,, | %31
 C,2 C,2 C,2 E,2 |[M:4/4] x8 | x8 | E,2 A,2 D,2 B,,2 | C,2 A,G, [D,F,]E, D,2 | D,3 C, B,,A,, x2 | %37
 C,3 B,, A,,B,, C,2 | x8 | x8 ||[M:3/4] x8 | x8 | x8 ||[M:4/4] x8 |[M:4/4] x8 | x4 B,,3 B,, | %46
 C,2 C,2 C,2 E,2 | x8 | x8 | x2 A,2 D,2 x2 | x2 A,G, [D,F,]E, D,2 | D,3 C, B,,A,, G,,2 | %52
 C,3 B,, A,,B,, C,2 | x8 | x8 | G,,8 |] %56

